tools/luts/hlg_to_709.cube
# HLG BT.2020 -> BT.709 SDR, diffuse-white normalised
LUT_3D_SIZE 9
0.000000 0.000000 0.000000
0.136606 0.000000 0.000000
0.340657 0.000000 0.000000
0.534280 0.000000 0.000000
0.721428 0.000000 0.000000
0.949209 0.000000 0.000000
1.000000 0.000000 0.000000
1.000000 0.000000 0.000000
1.000000 0.000000 0.000000
0.000000 0.099365 0.000000
0.094567 0.089232 0.000000
0.322707 0.056125 0.000000
0.522951 0.001017 0.000000
0.713213 0.000000 0.000000
0.943135 0.000000 0.000000
1.000000 0.000000 0.000000
1.000000 0.000000 0.000000
1.000000 0.000000 0.000000
0.000000 0.271162 0.000000
0.000000 0.266547 0.000000
0.262208 0.252254 0.000000
0.487346 0.226709 0.000000
0.687934 0.186168 0.000000
0.924649 0.096370 0.000000
1.000000 0.000000 0.000000
1.000000 0.000000 0.000000
1.000000 0.000000 0.000000
0.000000 0.434181 0.000000
0.000000 0.431239 0.000000
0.115907 0.422291 0.000000
0.421283 0.406945 0.000000
0.643442 0.384454 0.000000
0.892897 0.344147 0.000000
1.000000 0.275473 0.000000
1.000000 0.256260 0.000000
1.000000 0.250096 0.000000
0.000000 0.591747 0.000000
0.000000 0.589607 0.000000
0.000000 0.583135 0.000000
0.306285 0.572179 0.000000
0.575039 0.556463 0.000000
0.846236 0.529405 0.000000
1.000000 0.487051 0.000000
1.000000 0.476161 0.000000
1.000000 0.472765 0.000000
0.000000 0.783524 0.000000
0.000000 0.781939 0.000000
0.000000 0.777161 0.000000
0.000000 0.769127 0.000000
0.438079 0.757724 0.000000
0.762176 0.738444 0.000000
1.000000 0.709228 0.000000
1.000000 0.701919 0.000000
1.000000 0.699657 0.000000
0.000000 0.995681 0.000000
0.000000 0.994463 0.000000
0.000000 0.990799 0.000000
0.000000 0.984659 0.000000
0.036421 0.975991 0.000000
0.617113 0.961462 0.000000
0.969201 0.939764 0.000000
1.000000 0.934398 0.000000
1.000000 0.932743 0.000000
0.000000 1.000000 0.000000
0.000000 1.000000 0.000000
0.000000 1.000000 0.000000
0.000000 1.000000 0.000000
0.000000 1.000000 0.000000
0.575931 1.000000 0.000000
0.944475 0.987074 0.000000
1.000000 0.981994 0.000000
1.000000 0.980428 0.000000
0.000000 1.000000 0.000000
0.000000 1.000000 0.000000
0.000000 1.000000 0.000000
0.000000 1.000000 0.000000
0.000000 1.000000 0.000000
0.562646 1.000000 0.000000
0.936734 1.000000 0.000000
1.000000 0.996111 0.000000
1.000000 0.994569 0.000000
0.000000 0.000000 0.098242
0.131901 0.000000 0.096792
0.338482 0.000000 0.092359
0.532890 0.000000 0.084679
0.720416 0.000000 0.073197
0.948459 0.000000 0.054556
1.000000 0.000000 0.027293
1.000000 0.000000 0.020658
1.000000 0.000000 0.018619
0.000000 0.098710 0.090054
0.088542 0.088534 0.088525
0.320418 0.055391 0.083846
0.521530 0.000283 0.075568
0.712188 0.000000 0.064299
0.942380 0.000000 0.045657
1.000000 0.000000 0.018394
1.000000 0.000000 0.011759
1.000000 0.000000 0.009720
0.000000 0.270857 0.063361
0.000000 0.266237 0.061751
0.259438 0.251929 0.056921
0.485819 0.226352 0.048872
0.686868 0.185748 0.037603
0.923876 0.095703 0.018961
1.000000 0.000000 0.000000
1.000000 0.000000 0.000000
1.000000 0.000000 0.000000
0.000000 0.433985 0.018868
0.000000 0.431042 0.017258
0.110626 0.422090 0.012428
0.419514 0.406737 0.004379
0.642298 0.384234 0.000000
0.892094 0.343902 0.000000
1.000000 0.275172 0.000000
1.000000 0.255939 0.000000
1.000000 0.249768 0.000000
0.000000 0.591605 0.000000
0.000000 0.589464 0.000000
0.000000 0.582991 0.000000
0.303881 0.572032 0.000000
0.573751 0.556312 0.000000
0.845384 0.529245 0.000000
1.000000 0.486877 0.000000
1.000000 0.475983 0.000000
1.000000 0.472585 0.000000
0.000000 0.783419 0.000000
0.000000 0.781833 0.000000
0.000000 0.777055 0.000000
0.000000 0.769019 0.000000
0.436378 0.757615 0.000000
0.761222 0.738332 0.000000
1.000000 0.709110 0.000000
1.000000 0.701800 0.000000
1.000000 0.699538 0.000000
0.000000 0.995600 0.000000
0.000000 0.994382 0.000000
0.000000 0.990718 0.000000
0.000000 0.984577 0.000000
0.029982 0.975908 0.000000
0.615918 0.961377 0.000000
0.968468 0.939677 0.000000
1.000000 0.934311 0.000000
1.000000 0.932656 0.000000
0.000000 1.000000 0.000000
0.000000 1.000000 0.000000
0.000000 1.000000 0.000000
0.000000 1.000000 0.000000
0.000000 1.000000 0.000000
0.574646 1.000000 0.000000
0.943721 0.986992 0.000000
1.000000 0.981912 0.000000
1.000000 0.980345 0.000000
0.000000 1.000000 0.000000
0.000000 1.000000 0.000000
0.000000 1.000000 0.000000
0.000000 1.000000 0.000000
0.000000 1.000000 0.000000
0.561329 1.000000 0.000000
0.935973 1.000000 0.000000
1.000000 0.996030 0.000000
1.000000 0.994488 0.000000
0.000000 0.000000 0.269067
0.117025 0.000000 0.268393
0.331876 0.000000 0.266361
0.528697 0.000000 0.262942
0.717369 0.000000 0.258089
0.946204 0.000000 0.249880
1.000000 0.000000 0.237429
1.000000 0.000000 0.234313
1.000000 0.000000 0.233348
0.000000 0.096728 0.265320
0.069146 0.086418 0.264637
0.313456 0.053189 0.262579
0.517243 0.000000 0.259117
0.709103 0.000000 0.254199
0.940109 0.000000 0.245876
1.000000 0.000000 0.233241
1.000000 0.000000 0.230076
1.000000 0.000000 0.229096
0.000000 0.269940 0.253786
0.000000 0.265305 0.253076
0.250966 0.250950 0.250934
0.481206 0.225278 0.247329
0.683661 0.184483 0.242203
0.921555 0.093683 0.233510
1.000000 0.000000 0.220273
1.000000 0.000000 0.216948
1.000000 0.000000 0.215918
0.000000 0.433399 0.233466
0.000000 0.430452 0.232702
0.093712 0.421487 0.230397
0.414163 0.406112 0.226511
0.638853 0.383572 0.220974
0.889682 0.343166 0.211549
1.000000 0.274267 0.197098
1.000000 0.254974 0.193448
1.000000 0.248782 0.192315
0.000000 0.591178 0.202161
0.000000 0.589035 0.201299
0.000000 0.582557 0.198693
0.296562 0.571589 0.194288
0.569869 0.555856 0.187981
0.842825 0.528765 0.177159
1.000000 0.486354 0.160328
1.000000 0.475448 0.156024
1.000000 0.472047 0.154684
0.000000 0.783102 0.139133
0.000000 0.781516 0.137983
0.000000 0.776735 0.134490
0.000000 0.768696 0.128522
0.431234 0.757287 0.119831
0.758352 0.737994 0.104446
1.000000 0.708758 0.078742
1.000000 0.701444 0.072107
1.000000 0.699180 0.070068
0.000000 0.995356 0.000000
0.000000 0.994138 0.000000
0.000000 0.990473 0.000000
0.000000 0.984331 0.000000
0.010663 0.975659 0.000000
0.612316 0.961124 0.000000
0.966265 0.939418 0.000000
1.000000 0.934050 0.000000
1.000000 0.932394 0.000000
0.000000 1.000000 0.000000
0.000000 1.000000 0.000000
0.000000 1.000000 0.000000
0.000000 1.000000 0.000000
0.000000 1.000000 0.000000
0.570770 1.000000 0.000000
0.941454 0.986746 0.000000
1.000000 0.981665 0.000000
1.000000 0.980098 0.000000
0.000000 1.000000 0.000000
0.000000 1.000000 0.000000
0.000000 1.000000 0.000000
0.000000 1.000000 0.000000
0.000000 1.000000 0.000000
0.557357 1.000000 0.000000
0.933685 1.000000 0.000000
1.000000 0.995787 0.000000
1.000000 0.994245 0.000000
0.000000 0.000000 0.431163
0.088980 0.000000 0.430731
0.320582 0.000000 0.429434
0.521632 0.000000 0.427264
0.712261 0.000000 0.424207
0.942434 0.000000 0.419102
1.000000 0.000000 0.411523
1.000000 0.000000 0.409657
1.000000 0.000000 0.409082
0.000000 0.093369 0.428773
0.036948 0.082824 0.428339
0.301523 0.049518 0.427035
0.510014 0.000000 0.424852
0.703930 0.000000 0.421778
0.936311 0.000000 0.416643
1.000000 0.000000 0.409019
1.000000 0.000000 0.407142
1.000000 0.000000 0.406564
0.000000 0.268404 0.421521
0.000000 0.263746 0.421080
0.236260 0.249312 0.419753
0.473418 0.223479 0.417533
0.678281 0.182360 0.414405
0.917673 0.090257 0.409179
1.000000 0.000000 0.401415
1.000000 0.000000 0.399503
1.000000 0.000000 0.398914
0.000000 0.432419 0.409152
0.000000 0.429465 0.408698
0.061778 0.420480 0.407332
0.405090 0.405067 0.405044
0.633067 0.382467 0.401821
0.885645 0.341936 0.396432
1.000000 0.272753 0.388419
1.000000 0.253358 0.386444
1.000000 0.247131 0.385836
0.000000 0.590465 0.391191
0.000000 0.588319 0.390717
0.000000 0.581833 0.389288
0.283980 0.570851 0.386897
0.563338 0.555096 0.383524
0.838540 0.527965 0.377881
1.000000 0.485482 0.369479
1.000000 0.474556 0.367405
1.000000 0.471148 0.366766
0.000000 0.782574 0.359574
0.000000 0.780986 0.359059
0.000000 0.776203 0.357509
0.000000 0.768158 0.354911
0.422523 0.756739 0.351243
0.753542 0.737431 0.345094
1.000000 0.708170 0.335910
1.000000 0.700849 0.333638
1.000000 0.698583 0.332937
0.000000 0.994951 0.307839
0.000000 0.993732 0.307242
0.000000 0.990065 0.305446
0.000000 0.983920 0.302430
0.000000 0.975244 0.298161
0.606262 0.960703 0.290974
0.962581 0.938985 0.280162
1.000000 0.933615 0.277472
1.000000 0.931958 0.276642
0.000000 1.000000 0.293971
0.000000 1.000000 0.293348
0.000000 1.000000 0.291474
0.000000 1.000000 0.288325
0.000000 1.000000 0.283863
0.564250 1.000000 0.276339
0.937662 0.986337 0.264991
1.000000 0.981253 0.262163
1.000000 0.979685 0.261289
0.000000 1.000000 0.289589
0.000000 1.000000 0.288958
0.000000 1.000000 0.287057
0.000000 1.000000 0.283863
0.000000 1.000000 0.279337
0.550672 1.000000 0.271700
0.929858 1.000000 0.260173
0.999114 0.995382 0.257298
1.000000 0.993839 0.256409
0.000000 0.000000 0.587838
0.043848 0.000000 0.587524
0.304116 0.000000 0.586579
0.511572 0.000000 0.585002
0.705042 0.000000 0.582787
0.937126 0.000000 0.579103
1.000000 0.000000 0.573670
1.000000 0.000000 0.572340
1.000000 0.000000 0.571930
0.000000 0.088542 0.586098
0.000000 0.077443 0.585783
0.284047 0.044378 0.584836
0.499715 0.000000 0.583254
0.696619 0.000000 0.581031
0.930965 0.000000 0.577335
1.000000 0.000000 0.571885
1.000000 0.000000 0.570551
1.000000 0.000000 0.570140
0.000000 0.266241 0.580846
0.000000 0.261549 0.580528
0.214238 0.247002 0.579572
0.462291 0.220939 0.577974
0.670670 0.179354 0.575731
0.912206 0.085330 0.571999
1.000000 0.000000 0.566496
1.000000 0.000000 0.565148
1.000000 0.000000 0.564733
0.000000 0.431044 0.571980
0.000000 0.428081 0.571657
0.016700 0.419066 0.570685
0.392041 0.403600 0.569062
0.624871 0.380916 0.566782
0.879959 0.340208 0.562988
1.000000 0.270621 0.557392
1.000000 0.251081 0.556021
1.000000 0.244804 0.555600
0.000000 0.589466 0.559323
0.000000 0.587316 0.558992
0.000000 0.580818 0.557997
0.265467 0.569816 0.556335
0.554059 0.554030 0.554001
0.832500 0.526842 0.550116
1.000000 0.484259 0.544382
1.000000 0.473304 0.542977
1.000000 0.469886 0.542545
0.000000 0.781834 0.537706
0.000000 0.780245 0.537361
0.000000 0.775456 0.536325
0.000000 0.767403 0.534593
0.410020 0.755972 0.532160
0.746753 0.736642 0.528109
1.000000 0.707346 0.522126
1.000000 0.700016 0.520659
1.000000 0.697747 0.520207
0.000000 0.994383 0.504370
0.000000 0.993163 0.504002
0.000000 0.989494 0.502895
0.000000 0.983345 0.501046
0.000000 0.974664 0.498444
0.597679 0.960112 0.494109
0.957398 0.938379 0.487700
1.000000 0.933005 0.486127
1.000000 0.931347 0.485642
0.000000 1.000000 0.495910
0.000000 1.000000 0.495535
0.000000 1.000000 0.494409
0.000000 1.000000 0.492526
0.000000 1.000000 0.489878
0.554987 1.000000 0.485466
0.932325 0.985763 0.478939
1.000000 0.980676 0.477337
1.000000 0.979107 0.476843
0.000000 1.000000 0.493280
0.000000 1.000000 0.492904
0.000000 1.000000 0.491772
0.000000 1.000000 0.489879
0.000000 1.000000 0.487216
0.541168 1.000000 0.482779
0.924471 0.999821 0.476215
0.994141 0.994814 0.474603
1.000000 0.993270 0.474107
0.000000 0.000000 0.778529
0.000000 0.000000 0.778296
0.274912 0.000000 0.777597
0.494472 0.000000 0.776430
0.692924 0.000000 0.774792
0.928274 0.000000 0.772076
1.000000 0.000000 0.768084
1.000000 0.000000 0.767109
1.000000 0.000000 0.766809
0.000000 0.079964 0.777240
0.000000 0.068942 0.777007
0.252780 0.035877 0.776306
0.482187 0.000000 0.775137
0.684342 0.000000 0.773497
0.922047 0.000000 0.770775
1.000000 0.000000 0.766776
1.000000 0.000000 0.765799
1.000000 0.000000 0.765499
0.000000 0.262628 0.773360
0.000000 0.257878 0.773125
0.172943 0.243139 0.772421
0.443269 0.216683 0.771245
0.657876 0.174293 0.769596
0.903083 0.076632 0.766860
1.000000 0.000000 0.762838
1.000000 0.000000 0.761856
1.000000 0.000000 0.761554
0.000000 0.428761 0.766846
0.000000 0.425781 0.766609
0.000000 0.416717 0.765898
0.369473 0.401162 0.764712
0.611059 0.378335 0.763047
0.870463 0.337330 0.760285
1.000000 0.267061 0.756226
1.000000 0.247274 0.755234
1.000000 0.240910 0.754929
0.000000 0.587808 0.757624
0.000000 0.585653 0.757384
0.000000 0.579135 0.756664
0.232026 0.568099 0.755461
0.538347 0.552262 0.753775
0.822403 0.524979 0.750976
1.000000 0.482228 0.746862
1.000000 0.471225 0.745857
1.000000 0.467792 0.745548
0.000000 0.780609 0.742097
0.000000 0.779017 0.741852
0.000000 0.774220 0.741115
0.000000 0.766152 0.739885
0.388471 0.754701 0.738160
0.735372 0.735335 0.735297
1.000000 0.705980 0.731088
1.000000 0.698635 0.730060
1.000000 0.696362 0.729744
0.000000 0.993442 0.718737
0.000000 0.992221 0.718483
0.000000 0.988548 0.717720
0.000000 0.982392 0.716447
0.000000 0.973702 0.714661
0.583190 0.959134 0.711697
0.948754 0.937376 0.707336
1.000000 0.931995 0.706271
1.000000 0.930336 0.705943
0.000000 1.000000 0.712926
0.000000 1.000000 0.712670
0.000000 1.000000 0.711901
0.000000 1.000000 0.710617
0.000000 1.000000 0.708815
0.539303 1.000000 0.705824
0.923421 0.984813 0.701425
0.993173 0.979721 0.700349
1.000000 0.978150 0.700019
0.000000 1.000000 0.711131
0.000000 1.000000 0.710874
0.000000 1.000000 0.710103
0.000000 1.000000 0.708815
0.000000 1.000000 0.707009
0.525057 1.000000 0.704009
0.915483 0.998886 0.699598
0.985855 0.993874 0.698519
1.000000 0.992328 0.698188
0.000000 0.000000 0.989485
0.000000 0.000000 0.989306
0.226331 0.000000 0.988769
0.468320 0.000000 0.987872
0.674783 0.000000 0.986616
0.915156 0.000000 0.984534
1.000000 0.000000 0.981480
1.000000 0.000000 0.980735
1.000000 0.000000 0.980506
0.000000 0.067530 0.988495
0.000000 0.056509 0.988316
0.199718 0.023444 0.987778
0.455321 0.000000 0.986881
0.665950 0.000000 0.985623
0.908830 0.000000 0.983538
1.000000 0.000000 0.980481
1.000000 0.000000 0.979735
1.000000 0.000000 0.979506
0.000000 0.257264 0.985518
0.000000 0.252424 0.985338
0.092779 0.237391 0.984799
0.413882 0.210328 0.983898
0.638673 0.166677 0.982636
0.889555 0.064199 0.980545
1.000000 0.000000 0.977477
1.000000 0.000000 0.976729
1.000000 0.000000 0.976499
0.000000 0.425398 0.980534
0.000000 0.422396 0.980354
0.000000 0.413258 0.979811
0.333845 0.397570 0.978905
0.590247 0.374530 0.977636
0.856368 0.333079 0.975533
1.000000 0.261777 0.972448
1.000000 0.241612 0.971695
1.000000 0.235116 0.971464
0.000000 0.585376 0.973510
0.000000 0.583211 0.973327
0.000000 0.576664 0.972780
0.173931 0.565578 0.971867
0.514477 0.549665 0.970588
0.807388 0.522243 0.968468
1.000000 0.479242 0.965358
1.000000 0.468168 0.964599
1.000000 0.464713 0.964366
0.000000 0.778813 0.961764
0.000000 0.777217 0.961579
0.000000 0.772408 0.961025
0.000000 0.764319 0.960100
0.354678 0.752838 0.958803
0.718379 0.733419 0.956654
1.000000 0.703978 0.953501
1.000000 0.696610 0.952732
1.000000 0.694330 0.952495
0.000000 0.992065 0.944295
0.000000 0.990842 0.944106
0.000000 0.987163 0.943540
0.000000 0.980998 0.942596
0.000000 0.972293 0.941273
0.561296 0.957702 0.939079
0.935954 0.935907 0.935860
1.000000 0.930517 0.935075
1.000000 0.928854 0.934834
0.000000 1.000000 0.939988
0.000000 1.000000 0.939799
0.000000 1.000000 0.939230
0.000000 1.000000 0.938281
0.000000 1.000000 0.936951
0.515478 1.000000 0.934746
0.910226 0.983422 0.931511
0.981014 0.978322 0.930722
1.000000 0.976749 0.930479
0.000000 1.000000 0.938661
0.000000 1.000000 0.938471
0.000000 1.000000 0.937902
0.000000 1.000000 0.936951
0.000000 1.000000 0.935619
0.500536 1.000000 0.933410
0.902160 0.997517 0.930170
0.973594 0.992497 0.929380
0.994404 0.990949 0.929137
0.000000 0.000000 1.000000
0.000000 0.000000 1.000000
0.213087 0.000000 1.000000
0.461728 0.000000 1.000000
0.670288 0.000000 1.000000
0.911932 0.000000 1.000000
1.000000 0.000000 1.000000
1.000000 0.000000 1.000000
1.000000 0.000000 1.000000
0.000000 0.064504 1.000000
0.000000 0.053483 1.000000
0.184938 0.020418 1.000000
0.448537 0.000000 1.000000
0.661391 0.000000 1.000000
0.905581 0.000000 1.000000
1.000000 0.000000 1.000000
1.000000 0.000000 1.000000
1.000000 0.000000 1.000000
0.000000 0.255943 1.000000
0.000000 0.251081 1.000000
0.066425 0.235974 1.000000
0.406412 0.208757 1.000000
0.633905 0.164783 1.000000
0.886229 0.061173 1.000000
1.000000 0.000000 1.000000
1.000000 0.000000 1.000000
1.000000 0.000000 1.000000
0.000000 0.424576 1.000000
0.000000 0.421568 1.000000
0.000000 0.412412 1.000000
0.324615 0.396691 1.000000
0.585064 0.373598 1.000000
0.852899 0.332036 1.000000
1.000000 0.260477 1.000000
1.000000 0.240216 1.000000
1.000000 0.233687 1.000000
0.000000 0.584782 1.000000
0.000000 0.582615 1.000000
0.000000 0.576061 1.000000
0.157307 0.564962 1.000000
0.508493 0.549032 1.000000
0.803687 0.521574 1.000000
1.000000 0.478512 1.000000
1.000000 0.467421 1.000000
1.000000 0.463960 1.000000
0.000000 0.778375 1.000000
0.000000 0.776778 1.000000
0.000000 0.771966 1.000000
0.000000 0.763873 1.000000
0.345974 0.752384 1.000000
0.714177 0.732952 1.000000
1.000000 0.703490 0.999524
1.000000 0.696116 0.998794
1.000000 0.693834 0.998570
0.000000 0.991729 0.990791
0.000000 0.990506 0.990613
0.000000 0.986825 0.990076
0.000000 0.980658 0.989181
0.000000 0.971950 0.987927
0.555831 0.957353 0.985848
0.932809 0.935549 0.982798
1.000000 0.930157 0.982055
1.000000 0.928493 0.981826
0.000000 1.000000 0.986709
0.000000 1.000000 0.986530
0.000000 1.000000 0.985991
0.000000 1.000000 0.985092
0.000000 1.000000 0.983832
0.509506 1.000000 0.981743
0.906983 0.983084 0.978679
0.978029 0.977981 0.977932
0.998736 0.976407 0.977703
0.000000 1.000000 0.985452
0.000000 1.000000 0.985272
0.000000 1.000000 0.984732
0.000000 1.000000 0.983832
0.000000 1.000000 0.982570
0.494380 1.000000 0.980478
0.898884 0.997184 0.977410
0.970584 0.992161 0.976662
0.991464 0.990613 0.976432
0.000000 0.000000 1.000000
0.000000 0.000000 1.000000
0.208878 0.000000 1.000000
0.459684 0.000000 1.000000
0.668900 0.000000 1.000000
0.910939 0.000000 1.000000
1.000000 0.000000 1.000000
1.000000 0.000000 1.000000
1.000000 0.000000 1.000000
0.000000 0.063575 1.000000
0.000000 0.052553 1.000000
0.180204 0.019488 1.000000
0.446432 0.000000 1.000000
0.659984 0.000000 1.000000
0.904581 0.000000 1.000000
1.000000 0.000000 1.000000
1.000000 0.000000 1.000000
1.000000 0.000000 1.000000
0.000000 0.255536 1.000000
0.000000 0.250667 1.000000
0.058271 0.235538 1.000000
0.404089 0.208273 1.000000
0.632433 0.164197 1.000000
0.885204 0.060243 1.000000
1.000000 0.000000 1.000000
1.000000 0.000000 1.000000
1.000000 0.000000 1.000000
0.000000 0.424323 1.000000
0.000000 0.421313 1.000000
0.000000 0.412152 1.000000
0.321730 0.396420 1.000000
0.583462 0.373312 1.000000
0.851830 0.331715 1.000000
1.000000 0.260076 1.000000
1.000000 0.239786 1.000000
1.000000 0.233246 1.000000
0.000000 0.584600 1.000000
0.000000 0.582432 1.000000
0.000000 0.575876 1.000000
0.151928 0.564773 1.000000
0.506640 0.548837 1.000000
0.802546 0.521369 1.000000
1.000000 0.478288 1.000000
1.000000 0.467191 1.000000
1.000000 0.463729 1.000000
0.000000 0.778240 1.000000
0.000000 0.776643 1.000000
0.000000 0.771830 1.000000
0.000000 0.763735 1.000000
0.343258 0.752244 1.000000
0.712881 0.732808 1.000000
1.000000 0.703340 1.000000
1.000000 0.695964 1.000000
1.000000 0.693682 1.000000
0.000000 0.991626 1.000000
0.000000 0.990402 1.000000
0.000000 0.986722 1.000000
0.000000 0.980553 1.000000
0.000000 0.971844 1.000000
0.554141 0.957245 0.999730
0.931840 0.935439 0.996728
1.000000 0.930046 0.995995
1.000000 0.928382 0.995770
0.000000 1.000000 1.000000
0.000000 1.000000 1.000000
0.000000 1.000000 0.999871
0.000000 1.000000 0.998985
0.000000 1.000000 0.997745
0.507657 1.000000 0.995688
0.905984 0.982979 0.992673
0.977110 0.977876 0.991937
0.997838 0.976302 0.991711
0.000000 1.000000 0.999340
0.000000 1.000000 0.999163
0.000000 1.000000 0.998631
0.000000 1.000000 0.997745
0.000000 1.000000 0.996502
0.492472 1.000000 0.994443
0.897875 0.997081 0.991423
0.969657 0.992058 0.990687
0.990558 0.990509 0.990460
