tools/luts/hlg_to_709.cube
# HLG BT.2020 -> BT.709 SDR, diffuse-white normalised
LUT_3D_SIZE 33
0.000000 0.000000 0.000000
0.009180 0.000000 0.000000
0.036720 0.000000 0.000000
0.082862 0.000000 0.000000
0.136606 0.000000 0.000000
0.189009 0.000000 0.000000
0.240366 0.000000 0.000000
0.290871 0.000000 0.000000
0.340657 0.000000 0.000000
0.389822 0.000000 0.000000
0.438443 0.000000 0.000000
0.486580 0.000000 0.000000
0.534280 0.000000 0.000000
0.581584 0.000000 0.000000
0.628525 0.000000 0.000000
0.675132 0.000000 0.000000
0.721428 0.000000 0.000000
0.770084 0.000000 0.000000
0.824002 0.000000 0.000000
0.883573 0.000000 0.000000
0.949209 0.000000 0.000000
1.000000 0.000000 0.000000
1.000000 0.000000 0.000000
1.000000 0.000000 0.000000
1.000000 0.000000 0.000000
1.000000 0.000000 0.000000
1.000000 0.000000 0.000000
1.000000 0.000000 0.000000
1.000000 0.000000 0.000000
1.000000 0.000000 0.000000
1.000000 0.000000 0.000000
1.000000 0.000000 0.000000
1.000000 0.000000 0.000000
0.000000 0.006263 0.000000
0.005932 0.005574 0.000000
0.033472 0.003508 0.000000
0.079372 0.000064 0.000000
0.134247 0.000000 0.000000
0.187167 0.000000 0.000000
0.238861 0.000000 0.000000
0.289601 0.000000 0.000000
0.339561 0.000000 0.000000
0.388860 0.000000 0.000000
0.437587 0.000000 0.000000
0.485808 0.000000 0.000000
0.533579 0.000000 0.000000
0.580942 0.000000 0.000000
0.627933 0.000000 0.000000
0.674583 0.000000 0.000000
0.720918 0.000000 0.000000
0.769608 0.000000 0.000000
0.823560 0.000000 0.000000
0.883163 0.000000 0.000000
0.948831 0.000000 0.000000
1.000000 0.000000 0.000000
1.000000 0.000000 0.000000
1.000000 0.000000 0.000000
1.000000 0.000000 0.000000
1.000000 0.000000 0.000000
1.000000 0.000000 0.000000
1.000000 0.000000 0.000000
1.000000 0.000000 0.000000
1.000000 0.000000 0.000000
1.000000 0.000000 0.000000
1.000000 0.000000 0.000000
1.000000 0.000000 0.000000
0.000000 0.025053 0.000000
0.000000 0.024364 0.000000
0.023726 0.022298 0.000000
0.069626 0.018853 0.000000
0.126987 0.014031 0.000000
0.181553 0.007832 0.000000
0.234295 0.000254 0.000000
0.285762 0.000000 0.000000
0.336254 0.000000 0.000000
0.385960 0.000000 0.000000
0.435007 0.000000 0.000000
0.483487 0.000000 0.000000
0.531471 0.000000 0.000000
0.579013 0.000000 0.000000
0.626156 0.000000 0.000000
0.672936 0.000000 0.000000
0.719384 0.000000 0.000000
0.768179 0.000000 0.000000
0.822233 0.000000 0.000000
0.881934 0.000000 0.000000
0.947695 0.000000 0.000000
1.000000 0.000000 0.000000
1.000000 0.000000 0.000000
1.000000 0.000000 0.000000
1.000000 0.000000 0.000000
1.000000 0.000000 0.000000
1.000000 0.000000 0.000000
1.000000 0.000000 0.000000
1.000000 0.000000 0.000000
1.000000 0.000000 0.000000
1.000000 0.000000 0.000000
1.000000 0.000000 0.000000
1.000000 0.000000 0.000000
0.000000 0.056369 0.000000
0.000000 0.055680 0.000000
0.007483 0.053614 0.000000
0.053384 0.050169 0.000000
0.114211 0.045347 0.000000
0.171878 0.039148 0.000000
0.226511 0.031570 0.000000
0.279257 0.022615 0.000000
0.330673 0.012283 0.000000
0.381078 0.000572 0.000000
0.430672 0.000000 0.000000
0.479593 0.000000 0.000000
0.527938 0.000000 0.000000
0.575782 0.000000 0.000000
0.623181 0.000000 0.000000
0.670181 0.000000 0.000000
0.716819 0.000000 0.000000
0.765790 0.000000 0.000000
0.820015 0.000000 0.000000
0.879880 0.000000 0.000000
0.945798 0.000000 0.000000
1.000000 0.000000 0.000000
1.000000 0.000000 0.000000
1.000000 0.000000 0.000000
1.000000 0.000000 0.000000
1.000000 0.000000 0.000000
1.000000 0.000000 0.000000
1.000000 0.000000 0.000000
1.000000 0.000000 0.000000
1.000000 0.000000 0.000000
1.000000 0.000000 0.000000
1.000000 0.000000 0.000000
1.000000 0.000000 0.000000
0.000000 0.099365 0.000000
0.000000 0.098750 0.000000
0.000000 0.096892 0.000000
0.030644 0.093746 0.000000
0.094567 0.089232 0.000000
0.157578 0.083228 0.000000
0.215215 0.075413 0.000000
0.269913 0.066458 0.000000
0.322707 0.056125 0.000000
0.374139 0.044415 0.000000
0.424530 0.031327 0.000000
0.474087 0.016861 0.000000
0.522951 0.001017 0.000000
0.571227 0.000000 0.000000
0.618991 0.000000 0.000000
0.666304 0.000000 0.000000
0.713213 0.000000 0.000000
0.762433 0.000000 0.000000
0.816898 0.000000 0.000000
0.876996 0.000000 0.000000
0.943135 0.000000 0.000000
1.000000 0.000000 0.000000
1.000000 0.000000 0.000000
1.000000 0.000000 0.000000
1.000000 0.000000 0.000000
1.000000 0.000000 0.000000
1.000000 0.000000 0.000000
1.000000 0.000000 0.000000
1.000000 0.000000 0.000000
1.000000 0.000000 0.000000
1.000000 0.000000 0.000000
1.000000 0.000000 0.000000
1.000000 0.000000 0.000000
0.000000 0.143485 0.000000
0.000000 0.143004 0.000000
0.000000 0.141555 0.000000
0.001407 0.139116 0.000000
0.065667 0.135650 0.000000
0.137619 0.131098 0.000000
0.199918 0.125382 0.000000
0.257457 0.118387 0.000000
0.312187 0.109959 0.000000
0.365032 0.099874 0.000000
0.416502 0.087807 0.000000
0.466911 0.073230 0.000000
0.516467 0.057386 0.000000
0.565314 0.040165 0.000000
0.613560 0.021566 0.000000
0.661283 0.001589 0.000000
0.708546 0.000000 0.000000
0.758092 0.000000 0.000000
0.812873 0.000000 0.000000
0.873273 0.000000 0.000000
0.939700 0.000000 0.000000
1.000000 0.000000 0.000000
1.000000 0.000000 0.000000
1.000000 0.000000 0.000000
1.000000 0.000000 0.000000
1.000000 0.000000 0.000000
1.000000 0.000000 0.000000
1.000000 0.000000 0.000000
1.000000 0.000000 0.000000
1.000000 0.000000 0.000000
1.000000 0.000000 0.000000
1.000000 0.000000 0.000000
1.000000 0.000000 0.000000
0.000000 0.186724 0.000000
0.000000 0.186331 0.000000
0.000000 0.185148 0.000000
0.000000 0.183162 0.000000
0.029933 0.180353 0.000000
0.110009 0.176689 0.000000
0.179813 0.172129 0.000000
0.241470 0.166617 0.000000
0.298865 0.160076 0.000000
0.353595 0.152412 0.000000
0.406477 0.143492 0.000000
0.457986 0.133142 0.000000
0.508426 0.121118 0.000000
0.557999 0.107064 0.000000
0.606852 0.090435 0.000000
0.655091 0.070485 0.000000
0.702798 0.049131 0.000000
0.752750 0.025044 0.000000
0.807923 0.000000 0.000000
0.868698 0.000000 0.000000
0.935482 0.000000 0.000000
1.000000 0.000000 0.000000
1.000000 0.000000 0.000000
1.000000 0.000000 0.000000
1.000000 0.000000 0.000000
1.000000 0.000000 0.000000
1.000000 0.000000 0.000000
1.000000 0.000000 0.000000
1.000000 0.000000 0.000000
1.000000 0.000000 0.000000
1.000000 0.000000 0.000000
1.000000 0.000000 0.000000
1.000000 0.000000 0.000000
0.000000 0.229246 0.000000
0.000000 0.228914 0.000000
0.000000 0.227917 0.000000
0.000000 0.226245 0.000000
0.000000 0.223888 0.000000
0.070323 0.220826 0.000000
0.153492 0.217034 0.000000
0.221306 0.212479 0.000000
0.282381 0.207120 0.000000
0.339605 0.200905 0.000000
0.394306 0.193767 0.000000
0.447208 0.185622 0.000000
0.498752 0.176361 0.000000
0.549224 0.165842 0.000000
0.598823 0.153876 0.000000
0.647692 0.140200 0.000000
0.695939 0.124437 0.000000
0.746384 0.104844 0.000000
0.802030 0.077781 0.000000
0.863257 0.043618 0.000000
0.930469 0.002932 0.000000
1.000000 0.000000 0.000000
1.000000 0.000000 0.000000
1.000000 0.000000 0.000000
1.000000 0.000000 0.000000
1.000000 0.000000 0.000000
1.000000 0.000000 0.000000
1.000000 0.000000 0.000000
1.000000 0.000000 0.000000
1.000000 0.000000 0.000000
1.000000 0.000000 0.000000
1.000000 0.000000 0.000000
1.000000 0.000000 0.000000
0.000000 0.271162 0.000000
0.000000 0.270876 0.000000
0.000000 0.270015 0.000000
0.000000 0.268575 0.000000
0.000000 0.266547 0.000000
0.021595 0.263920 0.000000
0.118187 0.260676 0.000000
0.195918 0.256796 0.000000
0.262208 0.252254 0.000000
0.322754 0.247018 0.000000
0.379791 0.241049 0.000000
0.434440 0.234299 0.000000
0.487346 0.226709 0.000000
0.538915 0.218206 0.000000
0.589416 0.208699 0.000000
0.639042 0.198069 0.000000
0.687934 0.186168 0.000000
0.738964 0.171969 0.000000
0.795172 0.153774 0.000000
0.856932 0.129761 0.000000
0.924649 0.096370 0.000000
0.998755 0.048426 0.000000
1.000000 0.000000 0.000000
1.000000 0.000000 0.000000
1.000000 0.000000 0.000000
1.000000 0.000000 0.000000
1.000000 0.000000 0.000000
1.000000 0.000000 0.000000
1.000000 0.000000 0.000000
1.000000 0.000000 0.000000
1.000000 0.000000 0.000000
1.000000 0.000000 0.000000
1.000000 0.000000 0.000000
0.000000 0.312557 0.000000
0.000000 0.312305 0.000000
0.000000 0.311549 0.000000
0.000000 0.310286 0.000000
0.000000 0.308509 0.000000
0.000000 0.306210 0.000000
0.067350 0.303379 0.000000
0.163457 0.300001 0.000000
0.237538 0.296060 0.000000
0.302601 0.291534 0.000000
0.362661 0.286399 0.000000
0.419502 0.280624 0.000000
0.474083 0.274173 0.000000
0.526979 0.267003 0.000000
0.578561 0.259061 0.000000
0.629087 0.250285 0.000000
0.678739 0.240594 0.000000
0.730457 0.229242 0.000000
0.787320 0.215062 0.000000
0.849701 0.197081 0.000000
0.918003 0.173751 0.000000
0.992657 0.142310 0.000000
1.000000 0.096655 0.000000
1.000000 0.045608 0.000000
1.000000 0.016709 0.000000
1.000000 0.000000 0.000000
1.000000 0.000000 0.000000
1.000000 0.000000 0.000000
1.000000 0.000000 0.000000
1.000000 0.000000 0.000000
1.000000 0.000000 0.000000
1.000000 0.000000 0.000000
1.000000 0.000000 0.000000
0.000000 0.353492 0.000000
0.000000 0.353268 0.000000
0.000000 0.352596 0.000000
0.000000 0.351471 0.000000
0.000000 0.349892 0.000000
0.000000 0.347851 0.000000
0.005628 0.345341 0.000000
0.120085 0.342352 0.000000
0.207046 0.338872 0.000000
0.278505 0.334886 0.000000
0.342547 0.330379 0.000000
0.402159 0.325328 0.000000
0.458801 0.319711 0.000000
0.513301 0.313499 0.000000
0.566172 0.306659 0.000000
0.617759 0.299152 0.000000
0.668303 0.290931 0.000000
0.720821 0.281396 0.000000
0.778443 0.269645 0.000000
0.841540 0.255024 0.000000
0.910511 0.236586 0.000000
0.985791 0.212867 0.000000
1.000000 0.181371 0.000000
1.000000 0.149003 0.000000
1.000000 0.128367 0.000000
1.000000 0.114198 0.000000
1.000000 0.103927 0.000000
1.000000 0.096211 0.000000
1.000000 0.090266 0.000000
1.000000 0.085602 0.000000
1.000000 0.081892 0.000000
1.000000 0.078683 0.000000
1.000000 0.076326 0.000000
0.000000 0.394020 0.000000
0.000000 0.393819 0.000000
0.000000 0.393213 0.000000
0.000000 0.392201 0.000000
0.000000 0.390781 0.000000
0.000000 0.388947 0.000000
0.000000 0.386694 0.000000
0.056749 0.384015 0.000000
0.168311 0.380901 0.000000
0.249472 0.377342 0.000000
0.318925 0.373325 0.000000
0.382094 0.368836 0.000000
0.441292 0.363859 0.000000
0.497735 0.358373 0.000000
0.552142 0.352357 0.000000
0.604979 0.345784 0.000000
0.656562 0.338624 0.000000
0.710007 0.330372 0.000000
0.768502 0.320284 0.000000
0.832417 0.307869 0.000000
0.902152 0.292451 0.000000
0.978141 0.273061 0.000000
1.000000 0.248222 0.000000
1.000000 0.224016 0.000000
1.000000 0.209430 0.000000
1.000000 0.199858 0.000000
1.000000 0.193169 0.000000
1.000000 0.188291 0.000000
1.000000 0.184624 0.000000
1.000000 0.181805 0.000000
1.000000 0.179600 0.000000
1.000000 0.177851 0.000000
1.000000 0.176450 0.000000
0.000000 0.434181 0.000000
0.000000 0.433997 0.000000
0.000000 0.433447 0.000000
0.000000 0.432528 0.000000
0.000000 0.431239 0.000000
0.000000 0.429575 0.000000
0.000000 0.427533 0.000000
0.000000 0.425107 0.000000
0.115907 0.422291 0.000000
0.213835 0.419076 0.000000
0.291024 0.415455 0.000000
0.358874 0.411415 0.000000
0.421283 0.406945 0.000000
0.480096 0.402032 0.000000
0.536340 0.396658 0.000000
0.590649 0.390806 0.000000
0.643442 0.384454 0.000000
0.697957 0.377164 0.000000
0.757452 0.368301 0.000000
0.822298 0.357470 0.000000
0.892897 0.344147 0.000000
0.969685 0.327611 0.000000
1.000000 0.306834 0.000000
1.000000 0.287092 0.000000
1.000000 0.275473 0.000000
1.000000 0.267972 0.000000
1.000000 0.262794 0.000000
1.000000 0.259053 0.000000
1.000000 0.256260 0.000000
1.000000 0.254124 0.000000
1.000000 0.252461 0.000000
1.000000 0.251146 0.000000
1.000000 0.250096 0.000000
0.000000 0.474008 0.000000
0.000000 0.473840 0.000000
0.000000 0.473336 0.000000
0.000000 0.472495 0.000000
0.000000 0.471315 0.000000
0.000000 0.469793 0.000000
0.000000 0.467927 0.000000
0.000000 0.465712 0.000000
0.038520 0.463142 0.000000
0.168392 0.460213 0.000000
0.257628 0.456916 0.000000
0.331882 0.453244 0.000000
0.398409 0.449188 0.000000
0.460147 0.444738 0.000000
0.518599 0.439881 0.000000
0.574647 0.434603 0.000000
0.628852 0.428891 0.000000
0.684601 0.422355 0.000000
0.745240 0.414438 0.000000
0.811143 0.404811 0.000000
0.882716 0.393044 0.000000
0.960400 0.378565 0.000000
1.000000 0.360588 0.000000
1.000000 0.343758 0.000000
1.000000 0.333977 0.000000
1.000000 0.327718 0.000000
1.000000 0.323423 0.000000
1.000000 0.320332 0.000000
1.000000 0.318033 0.000000
1.000000 0.316279 0.000000
1.000000 0.314916 0.000000
1.000000 0.313841 0.000000
1.000000 0.312983 0.000000
0.000000 0.513529 0.000000
0.000000 0.513374 0.000000
0.000000 0.512910 0.000000
0.000000 0.512135 0.000000
0.000000 0.511048 0.000000
0.000000 0.509647 0.000000
0.000000 0.507929 0.000000
0.000000 0.505892 0.000000
0.000000 0.503530 0.000000
0.105192 0.500840 0.000000
0.216626 0.497816 0.000000
0.300193 0.494451 0.000000
0.372166 0.490739 0.000000
0.437576 0.486672 0.000000
0.498712 0.482240 0.000000
0.556827 0.477434 0.000000
0.612683 0.472241 0.000000
0.669857 0.466314 0.000000
0.731804 0.459154 0.000000
0.798905 0.450478 0.000000
0.871574 0.439921 0.000000
0.950259 0.427010 0.000000
1.000000 0.411109 0.000000
1.000000 0.396364 0.000000
1.000000 0.387864 0.000000
1.000000 0.382451 0.000000
1.000000 0.378750 0.000000
1.000000 0.376095 0.000000
1.000000 0.374122 0.000000
1.000000 0.372620 0.000000
1.000000 0.371454 0.000000
1.000000 0.370534 0.000000
1.000000 0.369802 0.000000
0.000000 0.552769 0.000000
0.000000 0.552625 0.000000
0.000000 0.552195 0.000000
0.000000 0.551477 0.000000
0.000000 0.550470 0.000000
0.000000 0.549172 0.000000
0.000000 0.547582 0.000000
0.000000 0.545697 0.000000
0.000000 0.543513 0.000000
0.012663 0.541027 0.000000
0.163705 0.538234 0.000000
0.262315 0.535130 0.000000
0.341828 0.531709 0.000000
0.411963 0.527964 0.000000
0.476409 0.523889 0.000000
0.537003 0.519476 0.000000
0.594800 0.514715 0.000000
0.653626 0.509290 0.000000
0.717071 0.502751 0.000000
0.785529 0.494849 0.000000
0.859429 0.485267 0.000000
0.939232 0.473598 0.000000
1.000000 0.459311 0.000000
1.000000 0.446149 0.000000
1.000000 0.438603 0.000000
1.000000 0.433815 0.000000
1.000000 0.430549 0.000000
1.000000 0.428208 0.000000
1.000000 0.426473 0.000000
1.000000 0.425152 0.000000
1.000000 0.424127 0.000000
1.000000 0.423320 0.000000
1.000000 0.422677 0.000000
0.000000 0.591747 0.000000
0.000000 0.591614 0.000000
0.000000 0.591213 0.000000
0.000000 0.590544 0.000000
0.000000 0.589607 0.000000
0.000000 0.588399 0.000000
0.000000 0.586919 0.000000
0.000000 0.585166 0.000000
0.000000 0.583135 0.000000
0.000000 0.580825 0.000000
0.086540 0.578232 0.000000
0.215548 0.575351 0.000000
0.306285 0.572179 0.000000
0.382724 0.568711 0.000000
0.451337 0.564939 0.000000
0.514940 0.560859 0.000000
0.575039 0.556463 0.000000
0.635789 0.551462 0.000000
0.700953 0.545443 0.000000
0.770952 0.538184 0.000000
0.846236 0.529405 0.000000
0.927284 0.518750 0.000000
1.000000 0.505760 0.000000
1.000000 0.493851 0.000000
1.000000 0.487051 0.000000
1.000000 0.482746 0.000000
1.000000 0.479814 0.000000
1.000000 0.477716 0.000000
1.000000 0.476161 0.000000
1.000000 0.474979 0.000000
1.000000 0.474062 0.000000
1.000000 0.473340 0.000000
1.000000 0.472765 0.000000
0.000000 0.632712 0.000000
0.000000 0.632588 0.000000
0.000000 0.632214 0.000000
0.000000 0.631591 0.000000
0.000000 0.630718 0.000000
0.000000 0.629593 0.000000
0.000000 0.628215 0.000000
0.000000 0.626582 0.000000
0.000000 0.624693 0.000000
0.000000 0.622545 0.000000
0.000000 0.620134 0.000000
0.149654 0.617458 0.000000
0.260962 0.614514 0.000000
0.346896 0.611296 0.000000
0.421266 0.607801 0.000000
0.488831 0.604023 0.000000
0.551863 0.599957 0.000000
0.615013 0.595336 0.000000
0.682282 0.589783 0.000000
0.754143 0.583097 0.000000
0.831079 0.575029 0.000000
0.913599 0.565264 0.000000
1.000000 0.553400 0.000000
1.000000 0.542566 0.000000
1.000000 0.536398 0.000000
1.000000 0.532501 0.000000
1.000000 0.529851 0.000000
1.000000 0.527955 0.000000
1.000000 0.526552 0.000000
1.000000 0.525485 0.000000
1.000000 0.524658 0.000000
1.000000 0.524007 0.000000
1.000000 0.523489 0.000000
0.000000 0.678108 0.000000
0.000000 0.677993 0.000000
0.000000 0.677645 0.000000
0.000000 0.677067 0.000000
0.000000 0.676255 0.000000
0.000000 0.675211 0.000000
0.000000 0.673932 0.000000
0.000000 0.672417 0.000000
0.000000 0.670664 0.000000
0.000000 0.668672 0.000000
0.000000 0.666438 0.000000
0.030294 0.663959 0.000000
0.195654 0.661233 0.000000
0.299002 0.658257 0.000000
0.382421 0.655026 0.000000
0.455757 0.651537 0.000000
0.522874 0.647785 0.000000
0.589262 0.643525 0.000000
0.659310 0.638413 0.000000
0.733580 0.632267 0.000000
0.812625 0.624865 0.000000
0.897001 0.615926 0.000000
0.987286 0.605100 0.000000
1.000000 0.595246 0.000000
1.000000 0.589651 0.000000
1.000000 0.586121 0.000000
1.000000 0.583723 0.000000
1.000000 0.582009 0.000000
1.000000 0.580741 0.000000
1.000000 0.579777 0.000000
1.000000 0.579031 0.000000
1.000000 0.578443 0.000000
1.000000 0.577975 0.000000
0.000000 0.728263 0.000000
0.000000 0.728156 0.000000
0.000000 0.727834 0.000000
0.000000 0.727298 0.000000
0.000000 0.726547 0.000000
0.000000 0.725579 0.000000
0.000000 0.724395 0.000000
0.000000 0.722993 0.000000
0.000000 0.721372 0.000000
0.000000 0.719529 0.000000
0.000000 0.717464 0.000000
0.000000 0.715174 0.000000
0.080327 0.712657 0.000000
0.230653 0.709910 0.000000
0.330466 0.706931 0.000000
0.412916 0.703716 0.000000
0.486035 0.700261 0.000000
0.556968 0.696343 0.000000
0.630790 0.691645 0.000000
0.708252 0.686005 0.000000
0.790033 0.679224 0.000000
0.876782 0.671052 0.000000
0.969141 0.661179 0.000000
1.000000 0.652219 0.000000
1.000000 0.647141 0.000000
1.000000 0.643943 0.000000
1.000000 0.641771 0.000000
1.000000 0.640221 0.000000
1.000000 0.639074 0.000000
1.000000 0.638202 0.000000
1.000000 0.637527 0.000000
1.000000 0.636996 0.000000
1.000000 0.636574 0.000000
0.000000 0.783524 0.000000
0.000000 0.783425 0.000000
0.000000 0.783128 0.000000
0.000000 0.782633 0.000000
0.000000 0.781939 0.000000
0.000000 0.781045 0.000000
0.000000 0.779952 0.000000
0.000000 0.778658 0.000000
0.000000 0.777161 0.000000
0.000000 0.775461 0.000000
0.000000 0.773557 0.000000
0.000000 0.771446 0.000000
0.000000 0.769127 0.000000
0.114467 0.766598 0.000000
0.256241 0.763856 0.000000
0.355347 0.760899 0.000000
0.438079 0.757724 0.000000
0.515774 0.754126 0.000000
0.594939 0.749817 0.000000
0.676758 0.744649 0.000000
0.762176 0.738444 0.000000
0.852013 0.730980 0.000000
0.947029 0.721982 0.000000
1.000000 0.713836 0.000000
1.000000 0.709228 0.000000
1.000000 0.706328 0.000000
1.000000 0.704361 0.000000
1.000000 0.702957 0.000000
1.000000 0.701919 0.000000
1.000000 0.701131 0.000000
1.000000 0.700520 0.000000
1.000000 0.700040 0.000000
1.000000 0.699657 0.000000
0.000000 0.844263 0.000000
0.000000 0.844172 0.000000
0.000000 0.843898 0.000000
0.000000 0.843441 0.000000
0.000000 0.842802 0.000000
0.000000 0.841979 0.000000
0.000000 0.840971 0.000000
0.000000 0.839779 0.000000
0.000000 0.838401 0.000000
0.000000 0.836836 0.000000
0.000000 0.835084 0.000000
0.000000 0.833142 0.000000
0.000000 0.831009 0.000000
0.000000 0.828685 0.000000
0.129572 0.826166 0.000000
0.272278 0.823452 0.000000
0.373063 0.820539 0.000000
0.461821 0.817240 0.000000
0.549044 0.813293 0.000000
0.637083 0.808564 0.000000
0.727493 0.802892 0.000000
0.821446 0.796080 0.000000
0.919924 0.787884 0.000000
0.999023 0.780479 0.000000
1.000000 0.776296 0.000000
1.000000 0.773667 0.000000
1.000000 0.771884 0.000000
1.000000 0.770612 0.000000
1.000000 0.769672 0.000000
1.000000 0.768958 0.000000
1.000000 0.768405 0.000000
1.000000 0.767970 0.000000
1.000000 0.767624 0.000000
0.000000 0.910877 0.000000
0.000000 0.910793 0.000000
0.000000 0.910541 0.000000
0.000000 0.910121 0.000000
0.000000 0.909533 0.000000
0.000000 0.908776 0.000000
0.000000 0.907850 0.000000
0.000000 0.906753 0.000000
0.000000 0.905487 0.000000
0.000000 0.904049 0.000000
0.000000 0.902439 0.000000
0.000000 0.900656 0.000000
0.000000 0.898699 0.000000
0.000000 0.896566 0.000000
0.000000 0.894256 0.000000
0.125087 0.891768 0.000000
0.277387 0.889100 0.000000
0.387861 0.886080 0.000000
0.488584 0.882468 0.000000
0.586125 0.878145 0.000000
0.683712 0.872966 0.000000
0.783340 0.866754 0.000000
0.886449 0.859292 0.000000
0.968567 0.852560 0.000000
1.000000 0.848763 0.000000
1.000000 0.846378 0.000000
1.000000 0.844762 0.000000
1.000000 0.843609 0.000000
1.000000 0.842757 0.000000
1.000000 0.842111 0.000000
1.000000 0.841610 0.000000
1.000000 0.841216 0.000000
1.000000 0.840903 0.000000
0.000000 0.966180 0.000000
0.000000 0.966101 0.000000
0.000000 0.965865 0.000000
0.000000 0.965472 0.000000
0.000000 0.964920 0.000000
0.000000 0.964211 0.000000
0.000000 0.963344 0.000000
0.000000 0.962317 0.000000
0.000000 0.961131 0.000000
0.000000 0.959785 0.000000
0.000000 0.958279 0.000000
0.000000 0.956610 0.000000
0.000000 0.954779 0.000000
0.000000 0.952785 0.000000
0.000000 0.950625 0.000000
0.000000 0.948300 0.000000
0.154419 0.945807 0.000000
0.307545 0.942986 0.000000
0.427228 0.939615 0.000000
0.536286 0.935582 0.000000
0.641870 0.930755 0.000000
0.747486 0.924969 0.000000
0.855300 0.918026 0.000000
0.940413 0.911769 0.000000
0.984573 0.908244 0.000000
1.000000 0.906030 0.000000
1.000000 0.904530 0.000000
1.000000 0.903461 0.000000
1.000000 0.902671 0.000000
1.000000 0.902071 0.000000
1.000000 0.901607 0.000000
1.000000 0.901242 0.000000
1.000000 0.900951 0.000000
0.000000 0.995681 0.000000
0.000000 0.995605 0.000000
0.000000 0.995377 0.000000
0.000000 0.994996 0.000000
0.000000 0.994463 0.000000
0.000000 0.993777 0.000000
0.000000 0.992938 0.000000
0.000000 0.991946 0.000000
0.000000 0.990799 0.000000
0.000000 0.989498 0.000000
0.000000 0.988041 0.000000
0.000000 0.986429 0.000000
0.000000 0.984659 0.000000
0.000000 0.982732 0.000000
0.000000 0.980645 0.000000
0.000000 0.978399 0.000000
0.036421 0.975991 0.000000
0.252543 0.973267 0.000000
0.388670 0.970012 0.000000
0.506150 0.966120 0.000000
0.617113 0.961462 0.000000
0.726564 0.955881 0.000000
0.837295 0.949187 0.000000
0.924226 0.943159 0.000000
0.969201 0.939764 0.000000
0.996202 0.937632 0.000000
1.000000 0.936188 0.000000
1.000000 0.935159 0.000000
1.000000 0.934398 0.000000
1.000000 0.933821 0.000000
1.000000 0.933374 0.000000
1.000000 0.933022 0.000000
1.000000 0.932743 0.000000
0.000000 1.000000 0.000000
0.000000 1.000000 0.000000
0.000000 1.000000 0.000000
0.000000 1.000000 0.000000
0.000000 1.000000 0.000000
0.000000 1.000000 0.000000
0.000000 1.000000 0.000000
0.000000 1.000000 0.000000
0.000000 1.000000 0.000000
0.000000 1.000000 0.000000
0.000000 1.000000 0.000000
0.000000 1.000000 0.000000
0.000000 1.000000 0.000000
0.000000 1.000000 0.000000
0.000000 0.998921 0.000000
0.000000 0.996720 0.000000
0.000000 0.994361 0.000000
0.211963 0.991694 0.000000
0.362517 0.988506 0.000000
0.486321 0.984695 0.000000
0.601076 0.980134 0.000000
0.713136 0.974672 0.000000
0.825810 0.968123 0.000000
0.913936 0.962226 0.000000
0.959444 0.958905 0.000000
0.986741 0.956820 0.000000
1.000000 0.955408 0.000000
1.000000 0.954402 0.000000
1.000000 0.953658 0.000000
1.000000 0.953094 0.000000
1.000000 0.952657 0.000000
1.000000 0.952313 0.000000
1.000000 0.952040 0.000000
0.000000 1.000000 0.000000
0.000000 1.000000 0.000000
0.000000 1.000000 0.000000
0.000000 1.000000 0.000000
0.000000 1.000000 0.000000
0.000000 1.000000 0.000000
0.000000 1.000000 0.000000
0.000000 1.000000 0.000000
0.000000 1.000000 0.000000
0.000000 1.000000 0.000000
0.000000 1.000000 0.000000
0.000000 1.000000 0.000000
0.000000 1.000000 0.000000
0.000000 1.000000 0.000000
0.000000 1.000000 0.000000
0.000000 1.000000 0.000000
0.000000 1.000000 0.000000
0.180377 1.000000 0.000000
0.343760 1.000000 0.000000
0.472438 0.997034 0.000000
0.589975 0.992537 0.000000
0.703904 0.987151 0.000000
0.817947 0.980693 0.000000
0.906908 0.974881 0.000000
0.952785 0.971608 0.000000
0.980288 0.969554 0.000000
0.998404 0.968162 0.000000
1.000000 0.967170 0.000000
