tools/luts/hlg_to_709.cube
# HLG BT.2020 -> BT.709 SDR, diffuse-white normalised
LUT_3D_SIZE 5
0.000000 0.000000 0.000000
0.340657 0.000000 0.000000
0.721428 0.000000 0.000000
1.000000 0.000000 0.000000
1.000000 0.000000 0.000000
0.000000 0.271162 0.000000
0.262208 0.252254 0.000000
0.687934 0.186168 0.000000
1.000000 0.000000 0.000000
1.000000 0.000000 0.000000
0.000000 0.591747 0.000000
0.000000 0.583135 0.000000
0.575039 0.556463 0.000000
1.000000 0.487051 0.000000
1.000000 0.472765 0.000000
0.000000 0.995681 0.000000
0.000000 0.990799 0.000000
0.036421 0.975991 0.000000
0.969201 0.939764 0.000000
1.000000 0.932743 0.000000
0.000000 1.000000 0.000000
0.000000 1.000000 0.000000
0.000000 1.000000 0.000000
0.936734 1.000000 0.000000
1.000000 0.994569 0.000000
0.000000 0.000000 0.269067
0.331876 0.000000 0.266361
0.717369 0.000000 0.258089
1.000000 0.000000 0.237429
1.000000 0.000000 0.233348
0.000000 0.269940 0.253786
0.250966 0.250950 0.250934
0.683661 0.184483 0.242203
1.000000 0.000000 0.220273
1.000000 0.000000 0.215918
0.000000 0.591178 0.202161
0.000000 0.582557 0.198693
0.569869 0.555856 0.187981
1.000000 0.486354 0.160328
1.000000 0.472047 0.154684
0.000000 0.995356 0.000000
0.000000 0.990473 0.000000
0.010663 0.975659 0.000000
0.966265 0.939418 0.000000
1.000000 0.932394 0.000000
0.000000 1.000000 0.000000
0.000000 1.000000 0.000000
0.000000 1.000000 0.000000
0.933685 1.000000 0.000000
1.000000 0.994245 0.000000
0.000000 0.000000 0.587838
0.304116 0.000000 0.586579
0.705042 0.000000 0.582787
1.000000 0.000000 0.573670
1.000000 0.000000 0.571930
0.000000 0.266241 0.580846
0.214238 0.247002 0.579572
0.670670 0.179354 0.575731
1.000000 0.000000 0.566496
1.000000 0.000000 0.564733
0.000000 0.589466 0.559323
0.000000 0.580818 0.557997
0.554059 0.554030 0.554001
1.000000 0.484259 0.544382
1.000000 0.469886 0.542545
0.000000 0.994383 0.504370
0.000000 0.989494 0.502895
0.000000 0.974664 0.498444
0.957398 0.938379 0.487700
1.000000 0.931347 0.485642
0.000000 1.000000 0.493280
0.000000 1.000000 0.491772
0.000000 1.000000 0.487216
0.924471 0.999821 0.476215
1.000000 0.993270 0.474107
0.000000 0.000000 0.989485
0.226331 0.000000 0.988769
0.674783 0.000000 0.986616
1.000000 0.000000 0.981480
1.000000 0.000000 0.980506
0.000000 0.257264 0.985518
0.092779 0.237391 0.984799
0.638673 0.166677 0.982636
1.000000 0.000000 0.977477
1.000000 0.000000 0.976499
0.000000 0.585376 0.973510
0.000000 0.576664 0.972780
0.514477 0.549665 0.970588
1.000000 0.479242 0.965358
1.000000 0.464713 0.964366
0.000000 0.992065 0.944295
0.000000 0.987163 0.943540
0.000000 0.972293 0.941273
0.935954 0.935907 0.935860
1.000000 0.928854 0.934834
0.000000 1.000000 0.938661
0.000000 1.000000 0.937902
0.000000 1.000000 0.935619
0.902160 0.997517 0.930170
0.994404 0.990949 0.929137
0.000000 0.000000 1.000000
0.208878 0.000000 1.000000
0.668900 0.000000 1.000000
1.000000 0.000000 1.000000
1.000000 0.000000 1.000000
0.000000 0.255536 1.000000
0.058271 0.235538 1.000000
0.632433 0.164197 1.000000
1.000000 0.000000 1.000000
1.000000 0.000000 1.000000
0.000000 0.584600 1.000000
0.000000 0.575876 1.000000
0.506640 0.548837 1.000000
1.000000 0.478288 1.000000
1.000000 0.463729 1.000000
0.000000 0.991626 1.000000
0.000000 0.986722 1.000000
0.000000 0.971844 1.000000
0.931840 0.935439 0.996728
1.000000 0.928382 0.995770
0.000000 1.000000 0.999340
0.000000 1.000000 0.998631
0.000000 1.000000 0.996502
0.897875 0.997081 0.991423
0.990558 0.990509 0.990460
